X:1
T:The Whole Wide for Jesus
T:The Whole Wide for Jesus
T:Rollin Chauncey Ward
T:Catherine Hardenbergh Johnson, 1872
T:Public Domain Courtesy of the Cyber Hymnal™
T:Public Domain Courtesy of the Cyber Hymnal™
C:Rollin Chauncey Ward
Z:Public Domain
Z:Courtesy of the Cyber Hymnal™
%%score ( 1 2 ) 3
L:1/8
Q:1/4=105
M:6/8
K:E
V:1 treble 
V:2 treble 
V:3 bass 
V:1
 E | [EG]2 [EA] [EG]2 [EF] | [EF]3 E2 [EG] | [GB]2 [GB] [Ac]2 [EG] | [GB]3- [GB]2 [GB] | %5
w: 1.~The|whole wide world for|Je- sus! Once|more be- fore we|part, * Ring|
w: 2.~The|whole wide world for|Je- sus! From|out the gol- den|gate, * Thro’|
w: 3.~The|whole wide world for|Je- sus Thro’|all its frag- rant|zones! * Ring|
 [Ge]2 [Ge] [Bd]2 [Ac] | [GB]3 [EG]2 [EA] | [EG]2 [EG] [B,F]2 [CE] | [DF]3- [DF]2 [FA] | %9
w: out the joy- ful|watch- word, From|ev- ery grate- ful|heart. * The|
w: all Pa- ci- fic’s|is- lands, To|Chi- na’s prince- ly|state; * From|
w: out a- gain the|watch- word, In|loft- iest, glad- dest|tones. * The|
 [EG]2 [EA] [EG]2 [EF] | [EF]3 E2 [EG] | [GB]2 [GB] [Ac]2 [EG] | [GB]3- [GB]2 [GB] | %13
w: whole wide world for|Je- sus! Be|this our bat- tle|cry, * The|
w: In- dia’s vales and|mount- ains, Thro’|Per- sia’s land of|bloom, * To|
w: whole wide world for|Je- sus! We’ll|sing the song with|prayer, * And|
 [Ge]2 [Ge] [Bd]2 [Ac] | [GB]3 [EG]2 E | [EF]2 E [EG]2 [DF] | E3- E2 ||"^Refrain" [EG] | %18
w: lift- ed cross our|ban- ner, A|sign to con- quer|by! *||
w: sto- ried Pal- es-|ti- na, And|Af- ric’s des- ert|gloom. *|Then|
w: link the prayer with|la- bor, Till|Christ His crown shall|wear. *||
 E2 E [EG]2 [GB] | [Ge]3- [Ge]2 [GB] | [Ac]2 [Ac] [Ae]2 [Ac] | [GB]3- [GB]2 [GB] | %22
w: ||||
w: lift the ban- ner|high * This|is our bat- tle|cry: * “The|
w: ||||
 [Ac]2 [GB] [EG]2 [GB] | [Ac]2 [GB] [EG]2 [EA] | [EG]2 [EG] [B,F]2 [CE] | [DF]3- [DF]2 [EG] | %26
w: ||||
w: cross of Je- sus”|at our side, We’d|con- quer by and|by. * Ring|
w: ||||
 E2 E [EG]2 [GB] | [Ge]3- [Ge]2 [GB] | [Ac]2 [Ac] [Ae]2 [Ac] | [GB]3- [GB]2 [GB] | %30
w: ||||
w: out the joy- ous|sound, * Let|hills and vales re-|sound; * The|
w: ||||
 [Ac]2 [GB] [EG]2 [GB] | [Ac]2 [GB] [EG]2 E | [EF]2 E [EG]2 [DF] | E3- E2 |] %34
w: ||||
w: whole wide world for|Christ Till all have|His sal- va- tion|found. *|
w: ||||
V:2
 E | x6 | x3 E2 x | x6 | x6 | x6 | x6 | x6 | x6 | x6 | x3 E2 x | x6 | x6 | x6 | x5 E | x2 E x3 | %16
 E3- E2 || x | E2 E x3 | x6 | x6 | x6 | x6 | x6 | x6 | x6 | E2 E x3 | x6 | x6 | x6 | x6 | x5 E | %32
 x2 E x3 | E3- E2 |] %34
V:3
 [E,G,] | [E,B,]2 [E,C] [E,B,]2 [E,A,] | [E,A,]3 [E,G,]2 [E,B,] | [E,E]2 [E,E] [E,E]2 [E,E] | %4
 [E,E]3- [E,E]2 [E,E] | [E,B,]2 [E,B,] [E,E]2 [E,E] | [E,E]3 [E,B,]2 [E,C] | %7
 [E,B,]2 [E,B,] [D,B,]2 [C,G,] | [B,,B,]3- [B,,B,]2 [B,,B,] | [E,B,]2 [E,C] [E,B,]2 [E,A,] | %10
 [E,A,]3 [E,G,]2 [E,B,] | [E,E]2 [E,E] [E,E]2 [E,E] | [E,E]3- [E,E]2 [E,E] | %13
 [E,B,]2 [E,B,] [E,E]2 [E,E] | [E,E]3 [E,B,]2 [E,G,] | [C,A,]2 [C,G,] [B,,B,]2 [B,,A,] | %16
 [E,G,]3- [E,G,]2 || [E,B,] | [E,G,]2 [E,G,] [E,B,]2 [E,E] | [E,B,]3- [E,B,]2 [E,E] | %20
 [A,,E]2 [A,,E] [A,,C]2 [A,,E] | [E,E]3- [E,E]2 [E,E] | [E,E]2 [E,E] [E,B,]2 [E,E] | %23
 [E,E]2 [E,E] [E,B,]2 [E,C] | [E,B,]2 [E,B,] [D,A,]2 [C,G,] | [B,,B,]3- [B,,B,]2 [E,B,] | %26
 [E,G,]2 [E,G,] [E,B,]2 [E,E] | [E,B,]3- [E,B,]2 [E,E] | [A,,E]2 [A,,E] [A,,C]2 [A,,E] | %29
 [E,E]3- [E,E]2 [E,E] | [E,E]2 [E,E] [E,B,]2 [E,E] | [E,E]2 [E,E] [E,B,]2 [E,G,] | %32
 [C,A,]2 [C,G,] [B,,B,]2 [B,,A,] | [E,G,]3- [E,G,]2 |] %34

